svg/emoji_u1f63a.svg

<svg enable-background="new 0 0 128 128" viewBox="0 0 128 128" xmlns="http://www.w3.org/2000/svg" xmlns:xlink="http://www.w3.org/1999/xlink"><path d="m21.77 55.7c-2.21 0-4.1-0.54-5.63-1.6-12.7-8.83-10.51-37.92-10.49-38.21 0.32-4 3.38-7.02 7.12-7.02 0.23 0 0.47 0.01 0.7 0.04 11.3 1.15 26 5.56 33.36 14.49 3.78 4.59 2.47 10.03 0.7 13.78-4.56 9.69-16.84 18.52-25.76 18.52z" fill="#FED133"/><path d="m12.77 10.38c0.18 0 0.37 0.01 0.55 0.03 11 1.12 25.28 5.37 32.36 13.95 1.81 2.2 3.37 6.1 0.5 12.19-4.28 9.07-16.14 17.65-24.41 17.65-1.9 0-3.5-0.45-4.78-1.34-9.96-6.91-10.48-28.94-9.84-36.85 0.25-3.21 2.67-5.63 5.62-5.63m0-3c-4.51 0-8.23 3.66-8.62 8.39-0.54 6.73-0.7 31.33 11.13 39.55 1.86 1.29 4.08 1.87 6.49 1.87 14.82 0 36.81-21.92 26.23-34.75-8.05-9.76-23.6-13.93-34.37-15.03-0.29-0.02-0.58-0.03-0.86-0.03z" fill="#EB8F00"/><path d="m5.81 22.04c0.05-1.31 0.2-2.74 1.09-3.67 1.18-1.24 3.13-1.11 4.78-0.76 4.49 0.95 8.77 2.96 12.42 5.83 1.82 1.43 3.55 3.2 4.09 5.48 0.82 3.51-1.38 6.93-3.47 9.83-1.46 2.02-2.93 4.06-4.79 5.69-1.55 1.37-4.1 4.82-6.18 5.07s-2.24-3.74-3.09-5.41c-2.22-4.38-3.72-9.15-4.42-14.04-0.38-2.65-0.53-5.34-0.43-8.02z" fill="#EB8F00"/><path d="m106.23 55.7c-8.92 0-21.2-8.83-25.77-18.52-1.77-3.75-3.08-9.19 0.7-13.78 7.37-8.93 22.06-13.34 33.36-14.49 0.24-0.02 0.47-0.04 0.7-0.04 3.74 0 6.8 3.02 7.12 7.02 0.02 0.29 2.22 29.38-10.48 38.2-1.53 1.07-3.42 1.61-5.63 1.61z" fill="#FED133"/><path d="m115.23 10.38c2.95 0 5.37 2.42 5.63 5.64 0.64 7.9 0.11 29.93-9.85 36.85-1.28 0.89-2.88 1.34-4.78 1.34-8.27 0-20.13-8.58-24.41-17.65-2.87-6.09-1.31-9.99 0.5-12.19 7.08-8.58 21.36-12.83 32.36-13.95 0.18-0.04 0.37-0.04 0.55-0.04m0-3c-0.28 0-0.57 0.01-0.85 0.04-10.77 1.09-26.33 5.26-34.38 15.02-10.58 12.84 11.41 34.76 26.23 34.76 2.41 0 4.63-0.58 6.49-1.87 11.83-8.22 11.67-32.83 11.12-39.55-0.38-4.75-4.1-8.4-8.61-8.4z" fill="#EB8F00"/><path d="m122.19 22.04c-0.05-1.31-0.2-2.74-1.09-3.67-1.18-1.24-3.13-1.11-4.78-0.76-4.49 0.95-8.77 2.96-12.42 5.83-1.82 1.43-3.55 3.2-4.09 5.48-0.82 3.51 1.38 6.93 3.47 9.83 1.46 2.02 2.93 4.06 4.79 5.69 1.55 1.37 5.1 3.56 7.18 3.81s1.24-2.48 2.09-4.15c2.22-4.38 3.72-9.15 4.42-14.04 0.38-2.65 0.53-5.34 0.43-8.02z" fill="#EB8F00"/><linearGradient id="e" x1="63.938" x2="63.938" y1="25.031" y2="107.67" gradientUnits="userSpaceOnUse"><stop stop-color="#FED133" offset=".5094"/><stop stop-color="#FDCE32" offset=".6339"/><stop stop-color="#FCC32E" offset=".7405"/><stop stop-color="#F9B128" offset=".8403"/><stop stop-color="#F6A323" offset=".9"/></linearGradient><path d="m63.94 119.12c-25.77 0-53.5-16.43-53.5-52.5s27.73-52.5 53.5-52.5c14.27 0 27.48 4.81 37.21 13.54 10.66 9.57 16.29 23.04 16.29 38.96 0 15.84-5.63 29.29-16.29 38.89-9.76 8.78-22.97 13.61-37.21 13.61z" fill="url(#e)"/><path d="m63.94 15.62c13.9 0 26.75 4.67 36.2 13.16 10.33 9.28 15.8 22.37 15.8 37.84 0 15.4-5.46 28.46-15.8 37.77-9.47 8.53-22.33 13.23-36.2 13.23-25.04 0-52-15.96-52-51 0-15.65 5.46-28.8 15.79-38.01 9.38-8.37 22.24-12.98 36.21-12.99m0-3c-28.56 0-55 18.66-55 54 0 35.15 26.44 54 55 54 28.55 0 55-19.33 55-54 0-34.85-26.45-53.99-55-54z" fill="#EB8F00"/><g fill="none" stroke="#404040" stroke-linecap="round" stroke-linejoin="round" stroke-miterlimit="10" stroke-width="4"><line x1="8.65" x2="28.55" y1="105.57" y2="95.16"/><line x1="27.15" x2="6.05" y1="88.01" y2="90.95"/><line x1="6.05" x2="27.32" y1="75.68" y2="80.92"/></g><g fill="none" stroke="#404040" stroke-linecap="round" stroke-linejoin="round" stroke-miterlimit="10" stroke-width="4"><line x1="119.35" x2="99.45" y1="105.57" y2="95.16"/><line x1="100.85" x2="121.95" y1="88.01" y2="90.95"/><line x1="121.95" x2="100.68" y1="75.68" y2="80.92"/></g><line x1="64" x2="64" y1="69.8" y2="90.8" fill="none" stroke="#404040" stroke-linecap="round" stroke-linejoin="round" stroke-miterlimit="10" stroke-width="5"/><line x1="56.01" x2="56.01" y1="16.69" y2="37.69" fill="none" stroke="#EB8F00" stroke-linecap="round" stroke-linejoin="round" stroke-miterlimit="10" stroke-width="7"/><line x1="71.99" x2="71.99" y1="16.69" y2="37.69" fill="none" stroke="#EB8F00" stroke-linecap="round" stroke-linejoin="round" stroke-miterlimit="10" stroke-width="7"/><ellipse cx="37.14" cy="59.64" rx="8.84" ry="10" fill="#404040"/><ellipse cx="90.86" cy="59.51" rx="8.84" ry="10" fill="#404040"/><path d="m66.47 73.19 5.44-6.13c1.89-2.13 0.38-5.5-2.47-5.5h-10.88c-2.85 0-4.36 3.37-2.47 5.5l5.44 6.13c1.31 1.48 3.63 1.48 4.94 0z" fill="#603813"/><defs><path id="d" d="m63.47 83.61c-10.54 0-20.35-0.88-28.52-2.4-2.03-0.38-3.82 1.41-3.41 3.43 2.72 13.3 15.81 24.22 31.92 24.22 17.63 0 29.5-11.28 31.97-24.27 0.38-2.01-1.41-3.76-3.42-3.38-8.18 1.52-17.99 2.4-28.54 2.4z"/></defs><clipPath id="a"><use xlink:href="#d"/></clipPath><path d="m63.47 83.61c-10.54 0-20.35-0.88-28.52-2.4-2.03-0.38-3.82 1.41-3.41 3.43 2.72 13.3 15.81 24.22 31.92 24.22 17.63 0 29.5-11.28 31.97-24.27 0.38-2.01-1.41-3.76-3.42-3.38-8.18 1.52-17.99 2.4-28.54 2.4z" clip-path="url(#a)" fill="#242424"/><path d="m99.22 82.84v-10h-71.49v10c11 6.46 23.07 10.05 35.74 10.05s24.76-3.59 35.75-10.05z" clip-path="url(#a)" fill="#fff"/><path d="m63.48 99.65c-7.91 0-14.81 4.31-18.48 10.71 4.78 2.61 11.3 4.22 18.48 4.22s13.7-1.61 18.48-4.22c-3.68-6.4-10.57-10.71-18.48-10.71z" clip-path="url(#a)" fill="#ED7770"/><g clip-path="url(#a)"><defs><path id="c" d="m27.73 72.84v10c11 6.46 23.07 10.05 35.74 10.05 12.68 0 24.75-3.59 35.74-10.05v-10h-71.48zm35.75 26.81c-7.91 0-14.81 4.31-18.48 10.71 4.78 2.61 11.3 4.22 18.48 4.22 7.19 0 13.7-1.61 18.48-4.22-3.68-6.4-10.57-10.71-18.48-10.71z"/></defs><clipPath id="b"><use xlink:href="#c"/></clipPath><g clip-path="url(#b)"><path d="m90.85 85.69c-1.35 4.88-4.28 9.32-8.37 12.64-5.1 4.14-11.68 6.32-19.02 6.32-12.7 0-24.08-8.02-27.32-18.95 8.26 1.39 17.66 2.12 27.33 2.12 9.69 0 19.11-0.73 27.38-2.13m1.7-4.53c-0.18 0-0.36 0.02-0.54 0.05-8.18 1.52-17.99 2.4-28.54 2.4-10.54 0-20.35-0.88-28.52-2.4-0.18-0.03-0.37-0.05-0.54-0.05-1.79 0-3.24 1.64-2.87 3.48 2.72 13.3 15.81 24.22 31.92 24.22 17.63 0 29.5-11.28 31.97-24.27 0.34-1.82-1.1-3.43-2.88-3.43z" fill="#EB8F00"/></g></g></svg>

<svg width="128" height="128" style="enable-background:new 0 0 128 128;" xmlns="http://www.w3.org/2000/svg" xmlns:xlink="http://www.w3.org/1999/xlink">
  <g>
    <g>
      <g>
        <path d="M21.77,55.7c-2.21,0-4.1-0.54-5.63-1.6C3.44,45.27,5.63,16.18,5.65,15.89 c0.32-4,3.38-7.02,7.12-7.02c0.23,0,0.47,0.01,0.7,0.04c11.3,1.15,26,5.56,33.36,14.49c3.78,4.59,2.47,10.03,0.7,13.78 C42.97,46.87,30.69,55.7,21.77,55.7z" style="fill:#FED133;"/>
        <path d="M12.77,10.38L12.77,10.38c0.18,0,0.37,0.01,0.55,0.03c11,1.12,25.28,5.37,32.36,13.95 c1.81,2.2,3.37,6.1,0.5,12.19C41.9,45.62,30.04,54.2,21.77,54.2c-1.9,0-3.5-0.45-4.78-1.34C7.03,45.95,6.51,23.92,7.15,16.01 C7.4,12.8,9.82,10.38,12.77,10.38 M12.77,7.38c-4.51,0-8.23,3.66-8.62,8.39C3.61,22.5,3.45,47.1,15.28,55.32 c1.86,1.29,4.08,1.87,6.49,1.87c14.82,0,36.81-21.92,26.23-34.75c-8.05-9.76-23.6-13.93-34.37-15.03 C13.34,7.39,13.05,7.38,12.77,7.38L12.77,7.38z" style="fill:#EB8F00;"/>
      </g>
      <path d="M5.81,22.04c0.05-1.31,0.2-2.74,1.09-3.67c1.18-1.24,3.13-1.11,4.78-0.76 c4.49,0.95,8.77,2.96,12.42,5.83c1.82,1.43,3.55,3.2,4.09,5.48c0.82,3.51-1.38,6.93-3.47,9.83c-1.46,2.02-2.93,4.06-4.79,5.69 c-1.55,1.37-4.1,4.82-6.18,5.07c-2.08,0.25-2.24-3.74-3.09-5.41c-2.22-4.38-3.72-9.15-4.42-14.04 C5.86,27.41,5.71,24.72,5.81,22.04z" style="fill:#EB8F00;"/>
    </g>
    <g>
      <g>
        <path d="M106.23,55.7c-8.92,0-21.2-8.83-25.77-18.52c-1.77-3.75-3.08-9.19,0.7-13.78 c7.37-8.93,22.06-13.34,33.36-14.49c0.24-0.02,0.47-0.04,0.7-0.04c3.74,0,6.8,3.02,7.12,7.02c0.02,0.29,2.22,29.38-10.48,38.2 C110.33,55.16,108.44,55.7,106.23,55.7C106.23,55.7,106.23,55.7,106.23,55.7z" style="fill:#FED133;"/>
        <path d="M115.23,10.38c2.95,0,5.37,2.42,5.63,5.64c0.64,7.9,0.11,29.93-9.85,36.85 c-1.28,0.89-2.88,1.34-4.78,1.34c-8.27,0-20.13-8.58-24.41-17.65c-2.87-6.09-1.31-9.99,0.5-12.19 c7.08-8.58,21.36-12.83,32.36-13.95C114.86,10.38,115.05,10.38,115.23,10.38 M115.23,7.38c-0.28,0-0.57,0.01-0.85,0.04 C103.61,8.51,88.05,12.68,80,22.44C69.42,35.28,91.41,57.2,106.23,57.2c2.41,0,4.63-0.58,6.49-1.87 c11.83-8.22,11.67-32.83,11.12-39.55C123.46,11.03,119.74,7.38,115.23,7.38L115.23,7.38z" style="fill:#EB8F00;"/>
      </g>
      <path d="M122.19,22.04c-0.05-1.31-0.2-2.74-1.09-3.67c-1.18-1.24-3.13-1.11-4.78-0.76 c-4.49,0.95-8.77,2.96-12.42,5.83c-1.82,1.43-3.55,3.2-4.09,5.48c-0.82,3.51,1.38,6.93,3.47,9.83c1.46,2.02,2.93,4.06,4.79,5.69 c1.55,1.37,5.1,3.56,7.18,3.81c2.08,0.25,1.24-2.48,2.09-4.15c2.22-4.38,3.72-9.15,4.42-14.04 C122.14,27.41,122.29,24.72,122.19,22.04z" style="fill:#EB8F00;"/>
    </g>
  </g>
  <g>
    <linearGradient id="SVGID_1_" gradientUnits="userSpaceOnUse" x1="63.9375" x2="63.9375" y1="25.031" y2="107.6731">
      <stop offset="0.5094" style="stop-color:#FED133"/>
      <stop offset="0.6339" style="stop-color:#FDCE32"/>
      <stop offset="0.7405" style="stop-color:#FCC32E"/>
      <stop offset="0.8403" style="stop-color:#F9B128"/>
      <stop offset="0.9" style="stop-color:#F6A323"/>
    </linearGradient>
    <path d="M63.94,119.12c-25.77,0-53.5-16.43-53.5-52.5c0-36.07,27.73-52.5,53.5-52.5 c14.27,0,27.48,4.81,37.21,13.54c10.66,9.57,16.29,23.04,16.29,38.96c0,15.84-5.63,29.29-16.29,38.89 C91.39,114.29,78.18,119.12,63.94,119.12z" style="fill:url(#SVGID_1_);"/>
    <path d="M63.94,15.62L63.94,15.62c13.9,0,26.75,4.67,36.2,13.16c10.33,9.28,15.8,22.37,15.8,37.84 c0,15.4-5.46,28.46-15.8,37.77c-9.47,8.53-22.33,13.23-36.2,13.23c-25.04,0-52-15.96-52-51c0-15.65,5.46-28.8,15.79-38.01 C37.11,20.24,49.97,15.63,63.94,15.62 M63.94,12.62L63.94,12.62L63.94,12.62L63.94,12.62c-28.56,0-55,18.66-55,54 c0,35.15,26.44,54,55,54h0h0h0c28.55,0,55-19.33,55-54C118.94,31.77,92.49,12.63,63.94,12.62L63.94,12.62z" style="fill:#EB8F00;"/>
  </g>
  <g>
    <line style="fill:none;stroke:#404040;stroke-width:4;stroke-linecap:round;stroke-linejoin:round;stroke-miterlimit:10;" x1="8.65" x2="28.55" y1="105.57" y2="95.16"/>
    <line style="fill:none;stroke:#404040;stroke-width:4;stroke-linecap:round;stroke-linejoin:round;stroke-miterlimit:10;" x1="27.15" x2="6.05" y1="88.01" y2="90.95"/>
    <line style="fill:none;stroke:#404040;stroke-width:4;stroke-linecap:round;stroke-linejoin:round;stroke-miterlimit:10;" x1="6.05" x2="27.32" y1="75.68" y2="80.92"/>
  </g>
  <g>
    <line style="fill:none;stroke:#404040;stroke-width:4;stroke-linecap:round;stroke-linejoin:round;stroke-miterlimit:10;" x1="119.35" x2="99.45" y1="105.57" y2="95.16"/>
    <line style="fill:none;stroke:#404040;stroke-width:4;stroke-linecap:round;stroke-linejoin:round;stroke-miterlimit:10;" x1="100.85" x2="121.95" y1="88.01" y2="90.95"/>
    <line style="fill:none;stroke:#404040;stroke-width:4;stroke-linecap:round;stroke-linejoin:round;stroke-miterlimit:10;" x1="121.95" x2="100.68" y1="75.68" y2="80.92"/>
  </g>
  <line style="fill:none;stroke:#404040;stroke-width:5;stroke-linecap:round;stroke-linejoin:round;stroke-miterlimit:10;" x1="64" x2="64" y1="69.8" y2="90.8"/>
  <line style="fill:none;stroke:#EB8F00;stroke-width:7;stroke-linecap:round;stroke-linejoin:round;stroke-miterlimit:10;" x1="56.01" x2="56.01" y1="16.69" y2="37.69"/>
  <line style="fill:none;stroke:#EB8F00;stroke-width:7;stroke-linecap:round;stroke-linejoin:round;stroke-miterlimit:10;" x1="71.99" x2="71.99" y1="16.69" y2="37.69"/>
  <ellipse cx="37.14" cy="59.64" rx="8.84" ry="10" style="fill:#404040;"/>
  <ellipse cx="90.86" cy="59.51" rx="8.84" ry="10" style="fill:#404040;"/>
  <path d="M66.47,73.19l5.44-6.13c1.89-2.13,0.38-5.5-2.47-5.5H58.56c-2.85,0-4.36,3.37-2.47,5.5l5.44,6.13 C62.84,74.67,65.16,74.67,66.47,73.19z" style="fill:#603813;"/>
  <g>
    <defs>
      <path id="SVGID_2_" d="M63.47,83.61c-10.54,0-20.35-0.88-28.52-2.4c-2.03-0.38-3.82,1.41-3.41,3.43 c2.72,13.3,15.81,24.22,31.92,24.22c17.63,0,29.5-11.28,31.97-24.27c0.38-2.01-1.41-3.76-3.42-3.38 C83.83,82.73,74.02,83.61,63.47,83.61z"/>
    </defs>
    <clipPath id="SVGID_3_">
      <use style="overflow:visible;" xlink:href="#SVGID_2_"/>
    </clipPath>
    <path d="M63.47,83.61c-10.54,0-20.35-0.88-28.52-2.4 c-2.03-0.38-3.82,1.41-3.41,3.43c2.72,13.3,15.81,24.22,31.92,24.22c17.63,0,29.5-11.28,31.97-24.27c0.38-2.01-1.41-3.76-3.42-3.38 C83.83,82.73,74.02,83.61,63.47,83.61z" style="clip-path:url(#SVGID_3_);fill:#242424;"/>
    <path d="M99.22,82.84v-10H27.73v10c11,6.46,23.07,10.05,35.74,10.05 S88.23,89.3,99.22,82.84z" style="clip-path:url(#SVGID_3_);fill:#FFFFFF;"/>
    <path d="M63.48,99.65c-7.91,0-14.81,4.31-18.48,10.71 c4.78,2.61,11.3,4.22,18.48,4.22s13.7-1.61,18.48-4.22C78.28,103.96,71.39,99.65,63.48,99.65z" style="clip-path:url(#SVGID_3_);fill:#ED7770;"/>
    <g style="clip-path:url(#SVGID_3_);">
      <defs>
        <path id="SVGID_4_" d="M27.73,72.84v10c11,6.46,23.07,10.05,35.74,10.05c12.68,0,24.75-3.59,35.74-10.05v-10H27.73z M63.48,99.65 c-7.91,0-14.81,4.31-18.48,10.71c4.78,2.61,11.3,4.22,18.48,4.22c7.19,0,13.7-1.61,18.48-4.22 C78.28,103.96,71.39,99.65,63.48,99.65z"/>
      </defs>
      <clipPath id="SVGID_5_">
        <use style="overflow:visible;" xlink:href="#SVGID_4_"/>
      </clipPath>
      <g style="clip-path:url(#SVGID_5_);">
        <path d="M90.85,85.69c-1.35,4.88-4.28,9.32-8.37,12.64c-5.1,4.14-11.68,6.32-19.02,6.32 c-12.7,0-24.08-8.02-27.32-18.95c8.26,1.39,17.66,2.12,27.33,2.12C73.16,87.82,82.58,87.09,90.85,85.69 M92.55,81.16 c-0.18,0-0.36,0.02-0.54,0.05c-8.18,1.52-17.99,2.4-28.54,2.4c-10.54,0-20.35-0.88-28.52-2.4c-0.18-0.03-0.37-0.05-0.54-0.05 c-1.79,0-3.24,1.64-2.87,3.48c2.72,13.3,15.81,24.22,31.92,24.22c17.63,0,29.5-11.28,31.97-24.27 C95.77,82.77,94.33,81.16,92.55,81.16L92.55,81.16z" style="fill:#EB8F00;"/>
      </g>
    </g>
  </g>
</svg>
